X: 29001
T: Naughton's
R: reel
M: 4/4
K: Amixolydian
A2 eA ceed|~B3 d eedB|EAce a2 ba|cedB ~A3 A|
~A2 eA ceed|B/A/GA/B/d e/f/gdB|EAce aced|cedB ~A3 z|
acea ~a2 ba|gBef g3b|a2 ea ~a2 ba|gedB EAce|
a2 ea ~a2 ba|gBef ~g3 z|agba g z ag|gedB eBdB|
A2 eA ceed|B ~G3 eBdB|AAB/c/e a z ed|cedB ~A3 A|
~A2 eA ceed|ABBd e/f/gdB|EAce aced|cedB ~A3 z|
acea aeba|(3gbgef gfgb|a z ea ~a2 ba|gedB EAce|
a2 ea ~a2 ba|gBef g z2 B/c/e|b3 a gbag|gedB =fedB||

